icons/linear-new-office-education-student-hat-graduate.svg

<svg xmlns="http://www.w3.org/2000/svg" width="32px" height="32px" viewBox="0 0 32 32" version="1.1">
    <title>linear-new-office-education-student-hat-graduate</title>
    <g id="linear-new-office-education-student-hat-graduate" stroke-width="1" fill-rule="evenodd">
        <path d="M16.4722214,2.61852003 L30.4722214,10.11852 C31.1759262,10.4955047 31.1759262,11.5044953 30.4722214,11.88148 L27,13.741 L27,23 C27,23.3646912 26.801467,23.7004644 26.4819187,23.8762159 L16.4819187,29.3762159 C16.1940091,29.5345662 15.84668,29.541374 15.5527864,29.3944272 L7.5527864,25.3944272 C7.21400238,25.2250352 7,24.8787721 7,24.5 L7,14.813 L5,13.742 L5,24 C5,24.5522847 4.55228475,25 4,25 C3.44771525,25 3,24.5522847 3,24 L3,12.67 L1.52777859,11.88148 C0.824073804,11.5044953 0.824073804,10.4955047 1.52777859,10.11852 L15.5277786,2.61852003 C15.8227618,2.46049332 16.1772382,2.46049332 16.4722214,2.61852003 Z M25,14.812 L16.4722214,19.38148 C16.1772382,19.5395067 15.8227618,19.5395067 15.5277786,19.38148 L9,15.884 L9,23.882 L15.978,27.37 L25,22.408 L25,14.812 Z M16,4.634 L4.117,10.999 L15.999,17.365 L27.882,10.999 L16,4.634 Z" id="&#24418;&#29366;" fill-rule="nonzero" />
    </g>
</svg>

<svg xmlns="http://www.w3.org/2000/svg" viewBox="0 0 32 32"><path fill="currentColor" d="m16.472 2.619 14 7.5a1 1 0 0 1 0 1.762L27 13.741V23a1 1 0 0 1-.518.876l-10 5.5a1 1 0 0 1-.93.018l-8-4A1 1 0 0 1 7 24.5v-9.687l-2-1.071V24a1 1 0 0 1-2 0V12.67l-1.472-.789a1 1 0 0 1 0-1.762l14-7.5a1 1 0 0 1 .944 0M25 14.812l-8.528 4.57a1 1 0 0 1-.944 0L9 15.883v7.998l6.978 3.488L25 22.408zM16 4.634 4.117 10.999l11.882 6.366 11.883-6.366z"/></svg>
